X:78
T: Die dienende Schwester
N: Q0075g
O: Mitteleuropa, Deutschland (BRD) , Rheinpfalz
R: Ballade, Adelige als Dienstmagd, Tod; Kinder - Spiel, Tanz
M: 2/4
L: 1/16
K: F
c2 | A2c2c2c2 | BBd2d2
d2 | G2B2B2B2 | A2c2c2
c2 | a4g2f2 | e2g2f2d2 | c4e4 | f4z2

@@@ Tune index: 1133
